lg/nvidia.svg

<svg viewBox="0 0 512 98" version="1.1" xmlns="http://www.w3.org/2000/svg" preserveAspectRatio="xMidYMid" height="1em" width="1em">
  <g>
    <path d="M312.804734,18.3939138 L312.804734,82.2316145 L330.819949,82.2316145 L330.819949,18.3939138 L312.804734,18.3939138 Z M171.063398,18.2857143 L171.063398,82.1775148 L189.240913,82.1775148 L189.240913,32.5680473 L203.415046,32.6221471 C208.067625,32.6221471 211.313609,33.7582418 213.531699,36.1386306 C216.398986,39.1682164 217.53508,44.0912933 217.53508,53.0177515 L217.53508,82.1775148 L235.171598,82.1775148 L235.171598,46.9044801 C235.171598,21.6939983 219.103973,18.2857143 203.415046,18.2857143 L171.063398,18.2857143 L171.063398,18.2857143 Z M341.856298,18.3939138 L341.856298,82.2316145 L371.070161,82.2316145 C386.650888,82.2316145 391.736264,79.6348267 397.200338,73.8461538 C401.09552,69.7886729 403.584108,60.808115 403.584108,51.0160609 C403.584108,42.035503 401.474218,34.0287405 397.741336,29.0515638 C391.141167,20.1251057 381.511412,18.3939138 367.120879,18.3939138 L341.856298,18.3939138 L341.856298,18.3939138 Z M359.709214,32.2434489 L367.445478,32.2434489 C378.698225,32.2434489 385.947591,37.2747253 385.947591,50.3668639 C385.947591,63.4590025 378.698225,68.5443787 367.445478,68.5443787 L359.709214,68.5443787 L359.709214,32.2434489 Z M286.836855,18.3939138 L271.797126,68.9771767 L257.406593,18.3939138 L237.930685,18.3939138 L258.488588,82.2316145 L284.456467,82.2316145 L305.230769,18.3939138 L286.836855,18.3939138 L286.836855,18.3939138 Z M412.023669,82.2316145 L430.038884,82.2316145 L430.038884,18.3939138 L412.023669,18.3939138 L412.023669,82.2316145 Z M462.552832,18.3939138 L437.39645,82.1775148 L455.141167,82.1775148 L459.144548,70.8706678 L488.899408,70.8706678 L492.686391,82.123415 L512,82.123415 L486.627219,18.3939138 L462.552832,18.3939138 L462.552832,18.3939138 Z M474.238377,30.0253593 L485.166526,59.8884193 L462.98563,59.8884193 L474.238377,30.0253593 Z" fill="#000000"/>
    <path d="M54.8030431,28.9974641 L54.8030431,20.2333052 C55.6686391,20.1792054 56.534235,20.1251057 57.3998309,20.1251057 C81.4201183,19.3677092 97.1631445,40.7912088 97.1631445,40.7912088 C97.1631445,40.7912088 80.1758242,64.3786982 61.9442096,64.3786982 C59.509721,64.3786982 57.1293322,64 54.8571429,63.2426036 L54.8571429,36.6255283 C64.216399,37.761623 66.1098901,41.8732037 71.682164,51.2324598 L84.1792054,40.737109 C84.1792054,40.737109 75.0363483,28.7810651 59.6720203,28.7810651 C58.0490279,28.7269653 56.4260355,28.8351648 54.8030431,28.9974641 M54.8030431,0 L54.8030431,13.0921386 L57.3998309,12.9298394 C90.7793745,11.7937447 112.581572,40.3043111 112.581572,40.3043111 C112.581572,40.3043111 87.5874894,70.7083686 61.5655114,70.7083686 C59.2933221,70.7083686 57.0752325,70.4919696 54.8571429,70.1132713 L54.8571429,78.2282333 C56.6965342,78.4446323 58.5900254,78.6069315 60.4294167,78.6069315 C84.6661031,78.6069315 102.194421,66.2180896 119.181741,51.6111581 C121.994928,53.8833474 133.518174,59.3474218 135.898563,61.7278107 C119.776839,75.2527473 82.1775148,86.1267963 60.8622147,86.1267963 C58.8064243,86.1267963 56.8588335,86.0185968 54.9112426,85.8021978 L54.9112426,97.2172443 L146.989011,97.2172443 L146.989011,0 L54.8030431,0 L54.8030431,0 Z M54.8030431,63.2426036 L54.8030431,70.1673711 C32.4057481,66.1639899 26.1842773,42.8469992 26.1842773,42.8469992 C26.1842773,42.8469992 36.9501268,30.9450549 54.8030431,28.9974641 L54.8030431,36.5714286 L54.7489434,36.5714286 C45.3896872,35.4353339 38.0321217,44.1994928 38.0321217,44.1994928 C38.0321217,44.1994928 42.1978022,58.9687236 54.8030431,63.2426036 M15.0397295,41.8732037 C15.0397295,41.8732037 28.2941674,22.2890955 54.8571429,20.2333052 L54.8571429,13.0921386 C25.4268808,15.4725275 0,40.3584108 0,40.3584108 C0,40.3584108 14.3905325,82.0152156 54.8030431,85.8021978 L54.8030431,78.2282333 C25.1563821,74.5494505 15.0397295,41.8732037 15.0397295,41.8732037 Z" fill="#76B900"/>
  </g>
</svg>

<svg viewBox="0 0 512 98" xmlns="http://www.w3.org/2000/svg" preserveAspectRatio="xMidYMid" height="1em" width="1em">
  <path d="M312.805 18.394v63.838h18.015V18.394h-18.015Zm-141.742-.108v63.892h18.178v-49.61l14.174.054c4.653 0 7.899 1.136 10.117 3.517 2.867 3.03 4.003 7.952 4.003 16.879v29.16h17.637V46.904c0-25.21-16.068-28.618-31.757-28.618h-32.352Zm170.793.108v63.838h29.214c15.58 0 20.666-2.597 26.13-8.386 3.896-4.057 6.384-13.038 6.384-22.83 0-8.98-2.11-16.987-5.843-21.964-6.6-8.927-16.23-10.658-30.62-10.658h-25.265Zm17.853 13.85h7.736c11.253 0 18.503 5.03 18.503 18.123 0 13.092-7.25 18.177-18.503 18.177h-7.736v-36.3Zm-72.872-13.85-15.04 50.583-14.39-50.583H237.93l20.558 63.838h25.967l20.775-63.838h-18.394Zm125.187 63.838h18.015V18.394h-18.015v63.838Zm50.529-63.838-25.157 63.784h17.745l4.004-11.307h29.754l3.787 11.252H512l-25.373-63.73h-24.074Zm11.685 11.631 10.929 29.863h-22.181l11.252-29.863Z"/>
  <path d="M54.803 28.997v-8.764c.866-.054 1.731-.108 2.597-.108 24.02-.757 39.763 20.666 39.763 20.666S80.176 64.38 61.944 64.38c-2.434 0-4.815-.379-7.087-1.136V36.626c9.36 1.136 11.253 5.247 16.825 14.606L84.18 40.737s-9.143-11.956-24.507-11.956c-1.623-.054-3.246.054-4.869.216m0-28.997v13.092l2.597-.162c33.38-1.136 55.182 27.374 55.182 27.374S87.587 70.708 61.566 70.708c-2.273 0-4.49-.216-6.709-.595v8.115c1.84.217 3.733.379 5.572.379 24.237 0 41.765-12.389 58.753-26.996 2.813 2.272 14.336 7.736 16.717 10.117-16.122 13.525-53.721 24.399-75.037 24.399a53.2 53.2 0 0 1-5.95-.325v11.415h92.077V0H54.803Zm0 63.243v6.924c-22.397-4.003-28.619-27.32-28.619-27.32s10.766-11.902 28.619-13.85v7.574h-.054c-9.36-1.136-16.717 7.628-16.717 7.628s4.166 14.77 16.771 19.044M15.04 41.873s13.254-19.584 39.817-21.64v-7.14C25.427 15.472 0 40.357 0 40.357s14.39 41.657 54.803 45.444v-7.574C25.156 74.55 15.04 41.873 15.04 41.873Z" fill="#76B900"/>
</svg>
